src/assets/mod.svg

<svg width="72" height="72" viewBox="0 0 72 72" fill="none" xmlns="http://www.w3.org/2000/svg">
<rect width="72" height="72" rx="8" fill="#00AD03"/>
<path d="M21 40L15 33L10 39L18 47L8.5 58.5L13.5 63.5L25 55L33 62L39 57L33 51L64 28V8H44L21 40Z" fill="white"/>
</svg>

<svg xmlns="http://www.w3.org/2000/svg" viewBox="0 0 72 72"><rect width="72" height="72" fill="#00AD03" rx="8"/><path fill="#fff" d="m21 40-6-7-5 6 8 8-9.5 11.5 5 5L25 55l8 7 6-5-6-6 31-23V8H44L21 40Z"/></svg>
